X: 1
T: Krossadans met tre
M: 2/4
L: 1/8
Q: 1/4=39
K: Am
|: "Am"AB ce | "Dm"dB cA | "E7"cB A^G | "Am"A2 E2 :|
Q: 1/4=144
[| "Am"AB cd | "E7"e2 ed | "E7"ed ed |: "Am"e2 ee "E7"dB |
| "Am"c2 ce "E7"dB | "Am"c2 ce "E7"dB \
| "Am"c2 Ac "E7"(3BA^G |1 "Am"A4 "E7"E2 :| "Am"A4 z2 |]
